docs/img/README-1.svg

<?xml version="1.0" encoding="UTF-8" standalone="no"?>
<svg
   version="1.2"
   width="14.215758mm"
   height="9.0185823mm"
   viewBox="0 0 11.556498 7.3315305"
   id="svg28"
   sodipodi:docname="README-1.svg"
   xmlns:inkscape="http://www.inkscape.org/namespaces/inkscape"
   xmlns:sodipodi="http://sodipodi.sourceforge.net/DTD/sodipodi-0.dtd"
   xmlns="http://www.w3.org/2000/svg"
   xmlns:svg="http://www.w3.org/2000/svg">
  <defs
     id="defs32" />
  <sodipodi:namedview
     id="namedview30"
     pagecolor="#ffffff"
     bordercolor="#666666"
     borderopacity="1.0"
     inkscape:pageshadow="2"
     inkscape:pageopacity="0.0"
     inkscape:pagecheckerboard="0"
     inkscape:document-units="mm" />
  <style
     text="style/css"
     id="style2"><![CDATA[
tspan { white-space: pre; }
]]></style>
  <!-- Page: 1/1 -->
  <g
     color="#7f7f7f"
     id="g14"
     transform="translate(-20.6486,-5.0451712)">
    <line
       transform="translate(20.6486,10.8207)"
       stroke-linejoin="round"
       stroke-linecap="round"
       stroke-width="0.1282"
       stroke="currentColor"
       x1="0.064099997"
       y1="0"
       x2="11.4924"
       y2="0"
       id="line4" />
    <line
       transform="translate(20.6486,9.8207)"
       stroke-linejoin="round"
       stroke-linecap="round"
       stroke-width="0.1282"
       stroke="currentColor"
       x1="0.064099997"
       y1="0"
       x2="11.4924"
       y2="0"
       id="line6" />
    <line
       transform="translate(20.6486,8.8207)"
       stroke-linejoin="round"
       stroke-linecap="round"
       stroke-width="0.1282"
       stroke="currentColor"
       x1="0.064099997"
       y1="0"
       x2="11.4924"
       y2="0"
       id="line8" />
    <line
       transform="translate(20.6486,7.8207)"
       stroke-linejoin="round"
       stroke-linecap="round"
       stroke-width="0.1282"
       stroke="currentColor"
       x1="0.064099997"
       y1="0"
       x2="11.4924"
       y2="0"
       id="line10" />
    <line
       transform="translate(20.6486,6.8207)"
       stroke-linejoin="round"
       stroke-linecap="round"
       stroke-width="0.1282"
       stroke="currentColor"
       x1="0.064099997"
       y1="0"
       x2="11.4924"
       y2="0"
       id="line12" />
  </g>
  <rect
     x="8.3339005"
     y="6.6614289"
     width="1.9471"
     height="0.2282"
     ry="0.1141"
     fill="currentColor"
     id="rect16" />
  <rect
     x="9.7897997"
     y="3.2755287"
     width="0.1666"
     height="3.3382001"
     ry="0.057100002"
     fill="currentColor"
     id="rect18" />
  <path
     d="m 5.8,2.6115288 c 0.092,-0.06 0.184,-0.12 0.252,-0.208 0.048,-0.064 0.076,-0.136 0.112,-0.208 0.008,-0.016 0.024,-0.024 0.04,-0.024 0.028,0 0.06,0.024 0.06,0.064 v 0.904 h 0.308 c 0.044,0 0.068,0.036 0.068,0.068 0,0.032 -0.024,0.068 -0.068,0.068 H 6.264 c 0,0.204 0.124,0.392 0.312,0.392 0.036,0 0.056,0.028 0.056,0.056 0,0.028 -0.02,0.052 -0.056,0.052 -0.188,0 -0.376,-0.052 -0.564,-0.052 -0.188,0 -0.376,0.052 -0.564,0.052 -0.036,0 -0.052,-0.024 -0.052,-0.052 0,-0.028 0.016,-0.056 0.052,-0.056 0.188,0 0.316,-0.188 0.316,-0.392 H 5.136 c -0.108,0 -0.144,-0.068 -0.144,-0.108 0,-0.012 0.004,-0.024 0.008,-0.028 0.316,-0.36 0.512,-0.812 0.512,-1.288 0,-0.048 0.036,-0.088 0.076,-0.076 0.1,0.028 0.2,0.052 0.3,0.052 0.1,0 0.2,-0.024 0.3,-0.052 0.008,-0.004 0.016,-0.004 0.024,-0.004 0.036,0 0.06,0.028 0.06,0.056 0,0.008 0,0.016 -0.008,0.024 l -1.128,1.288 h 0.628 v -0.428 c 0,-0.04 0.004,-0.08 0.036,-0.1 z"
     fill="currentColor"
     id="path20"
     style="stroke-width:0.004" />
  <path
     d="m 5.8,4.6601288 c 0.092,-0.06 0.184,-0.12 0.252,-0.208 0.048,-0.064 0.076,-0.136 0.112,-0.208 0.008,-0.016 0.024,-0.024 0.04,-0.024 0.028,0 0.06,0.024 0.06,0.064 v 0.904 h 0.308 c 0.044,0 0.068,0.036 0.068,0.068 0,0.032 -0.024,0.068 -0.068,0.068 H 6.264 c 0,0.204 0.124,0.392 0.312,0.392 0.036,0 0.056,0.028 0.056,0.056 0,0.028 -0.02,0.052 -0.056,0.052 -0.188,0 -0.376,-0.052 -0.564,-0.052 -0.188,0 -0.376,0.052 -0.564,0.052 -0.036,0 -0.052,-0.024 -0.052,-0.052 0,-0.028 0.016,-0.056 0.052,-0.056 0.188,0 0.316,-0.188 0.316,-0.392 H 5.136 c -0.108,0 -0.144,-0.068 -0.144,-0.108 0,-0.012 0.004,-0.024 0.008,-0.028 0.316,-0.36 0.512,-0.812 0.512,-1.288 0,-0.048 0.036,-0.088 0.076,-0.076 0.1,0.028 0.2,0.052 0.3,0.052 0.1,0 0.2,-0.024 0.3,-0.052 0.008,-0.004 0.016,-0.004 0.024,-0.004 0.036,0 0.06,0.028 0.06,0.056 0,0.008 0,0.016 -0.008,0.024 l -1.128,1.288 h 0.628 v -0.428 c 0,-0.04 0.004,-0.08 0.036,-0.1 z"
     fill="currentColor"
     id="path22"
     style="stroke-width:0.004" />
  <path
     d="M 2.324,3.7115288 H 2.36 c 0.628,0 1.032,0.52 1.032,1.056 0,0.308 -0.132,0.624 -0.432,0.848 -0.088,0.064 -0.184,0.112 -0.284,0.144 0.008,0.128 0.012,0.26 0.012,0.388 0,0.084 -0.004,0.172 -0.008,0.256 -0.028,0.488 -0.364,0.92 -0.844,0.92 -0.432,0 -0.788,-0.352 -0.788,-0.788 0,-0.232 0.216,-0.416 0.452,-0.416 0.216,0 0.38,0.192 0.38,0.416 0,0.208 -0.172,0.38 -0.38,0.38 -0.032,0 -0.064,-0.008 -0.096,-0.016 0.1,0.14 0.26,0.236 0.444,0.236 0.38,0 0.62,-0.368 0.644,-0.76 0.004,-0.08 0.008,-0.156 0.008,-0.236 0,-0.112 -0.004,-0.22 -0.012,-0.332 -0.116,0.02 -0.228,0.028 -0.348,0.028 -0.756,0 -1.332,-0.696 -1.332,-1.508 0,-0.704 0.512,-1.228 0.968,-1.772 -0.084,-0.248 -0.164,-0.496 -0.2,-0.756 -0.028,-0.208 -0.032,-0.424 -0.032,-0.636 0,-0.45200004 0.216,-0.87600004 0.584,-1.14400004 0.032,-0.024 0.084,-0.028 0.116,0 0.288,0.328 0.544,0.976 0.544,1.42800004 0,0.564 -0.332,1.012 -0.696,1.448 0.088,0.268 0.164,0.54 0.232,0.816 z m 0.332,1.864 c 0.256,-0.1 0.432,-0.372 0.432,-0.636 0,-0.348 -0.248,-0.692 -0.652,-0.748 0.096,0.452 0.172,0.9 0.22,1.384 z m -0.504,0.072 c 0.108,0 0.216,-0.008 0.32,-0.024 -0.052,-0.5 -0.132,-0.968 -0.232,-1.436 -0.316,0.028 -0.492,0.236 -0.492,0.464 0,0.172 0.096,0.356 0.312,0.48 0.02,0.02 0.032,0.044 0.032,0.068 0,0.052 -0.044,0.096 -0.096,0.096 -0.012,0 -0.028,0 -0.04,-0.008 -0.324,-0.176 -0.476,-0.464 -0.476,-0.748 0,-0.36 0.24,-0.712 0.656,-0.804 -0.056,-0.224 -0.12,-0.448 -0.188,-0.668 -0.416,0.488 -0.832,0.98 -0.832,1.616 0,0.528 0.508,0.964 1.036,0.964 z m 0.328,-4.56 c 0,-0.19600004 -0.012,-0.27600004 -0.076,-0.45200004 -0.396,0.18 -0.648,0.58000004 -0.648,1.01200004 0,0.276 0.088,0.508 0.164,0.732 0.308,-0.388 0.56,-0.796 0.56,-1.292 z"
     fill="currentColor"
     id="path24"
     style="stroke-width:0.004" />
  <path
     d="m 9.4904,6.2195288 c 0.244,0 0.468,0.132 0.468,0.396 0,0.284 -0.208,0.476 -0.396,0.588 -0.136,0.08 -0.284,0.128 -0.44,0.128 -0.244,0 -0.464,-0.132 -0.464,-0.396 0,-0.284 0.204,-0.476 0.392,-0.588 0.136,-0.08 0.284,-0.128 0.44,-0.128 z"
     fill="currentColor"
     id="path26"
     style="stroke-width:0.004" />
</svg>

<?xml version="1.0" encoding="UTF-8" standalone="no"?>
<svg
   version="1.2"
   width="20.213856mm"
   height="12.868698mm"
   viewBox="0 0 11.5028 7.3229998"
   id="svg28"
   sodipodi:docname="README-1.svg"
   xmlns:inkscape="http://www.inkscape.org/namespaces/inkscape"
   xmlns:sodipodi="http://sodipodi.sourceforge.net/DTD/sodipodi-0.dtd"
   xmlns="http://www.w3.org/2000/svg"
   xmlns:svg="http://www.w3.org/2000/svg">
  <defs
     id="defs32" />
  <sodipodi:namedview
     id="namedview30"
     pagecolor="#ffffff"
     bordercolor="#666666"
     borderopacity="1.0"
     inkscape:pageshadow="2"
     inkscape:pageopacity="0.0"
     inkscape:pagecheckerboard="0"
     inkscape:document-units="mm" />
  <style
     text="style/css"
     id="style2"><![CDATA[
tspan { white-space: pre; }
]]></style>
  <!-- Page: 1/1 -->
  <g
     color="#7f7f7f"
     id="g14"
     transform="translate(-14.454,-3.8303)">
    <line
       transform="translate(14.454,9.6093)"
       stroke-linejoin="round"
       stroke-linecap="round"
       stroke-width="0.1"
       stroke="currentColor"
       x1="0.050000001"
       y1="0"
       x2="11.4528"
       y2="0"
       id="line4" />
    <line
       transform="translate(14.454,8.6093)"
       stroke-linejoin="round"
       stroke-linecap="round"
       stroke-width="0.1"
       stroke="currentColor"
       x1="0.050000001"
       y1="0"
       x2="11.4528"
       y2="0"
       id="line6" />
    <line
       transform="translate(14.454,7.6093)"
       stroke-linejoin="round"
       stroke-linecap="round"
       stroke-width="0.1"
       stroke="currentColor"
       x1="0.050000001"
       y1="0"
       x2="11.4528"
       y2="0"
       id="line8" />
    <line
       transform="translate(14.454,6.6093)"
       stroke-linejoin="round"
       stroke-linecap="round"
       stroke-width="0.1"
       stroke="currentColor"
       x1="0.050000001"
       y1="0"
       x2="11.4528"
       y2="0"
       id="line10" />
    <line
       transform="translate(14.454,5.6093)"
       stroke-linejoin="round"
       stroke-linecap="round"
       stroke-width="0.1"
       stroke="currentColor"
       x1="0.050000001"
       y1="0"
       x2="11.4528"
       y2="0"
       id="line12" />
  </g>
  <rect
     x="8.2786999"
     y="6.6789999"
     width="1.9563"
     height="0.2"
     ry="0.1"
     fill="currentColor"
     id="rect16" />
  <rect
     x="9.7789001"
     y="3.279"
     width="0.13"
     height="3.3139"
     ry="0.039999999"
     fill="currentColor"
     id="rect18" />
  <path
     d="m 5.784,3.311 h 0.468 c 0,0.192 0.108,0.376 0.288,0.376 0.032,0 0.048,0.02 0.048,0.044 0,0.024 -0.016,0.048 -0.048,0.048 -0.176,0 -0.348,-0.052 -0.524,-0.052 -0.176,0 -0.348,0.052 -0.524,0.052 -0.032,0 -0.048,-0.024 -0.048,-0.048 0,-0.024 0.016,-0.044 0.048,-0.044 0.18,0 0.292,-0.184 0.292,-0.376 z M 5.816,2.551 C 5.904,2.495 5.992,2.435 6.056,2.351 6.1,2.291 6.132,2.219 6.164,2.151 6.172,2.135 6.184,2.127 6.2,2.127 c 0.024,0 0.052,0.02 0.052,0.056 v 0.98 H 6.54 c 0.04,0 0.06,0.028 0.06,0.056 0,0.028 -0.02,0.06 -0.06,0.06 H 6.252 V 3.311 H 5.784 V 3.279 H 5.116 C 5.024,3.279 4.992,3.223 4.992,3.187 4.992,3.175 4.996,3.167 5,3.163 5.32,2.791 5.552,2.335 5.552,1.843 5.552,1.803 5.58,1.767 5.616,1.779 5.708,1.807 5.804,1.831 5.9,1.831 5.996,1.831 6.092,1.807 6.184,1.779 6.24,1.763 6.276,1.815 6.252,1.843 L 5.116,3.163 H 5.784 V 2.639 c 0,-0.032 0.004,-0.068 0.032,-0.088 z"
     fill="currentColor"
     id="path20"
     style="stroke-width:0.004" />
  <path
     d="m 5.784,5.3254 h 0.468 c 0,0.192 0.108,0.376 0.288,0.376 0.032,0 0.048,0.02 0.048,0.044 0,0.024 -0.016,0.048 -0.048,0.048 -0.176,0 -0.348,-0.052 -0.524,-0.052 -0.176,0 -0.348,0.052 -0.524,0.052 -0.032,0 -0.048,-0.024 -0.048,-0.048 0,-0.024 0.016,-0.044 0.048,-0.044 0.18,0 0.292,-0.184 0.292,-0.376 z m 0.032,-0.76 c 0.088,-0.056 0.176,-0.116 0.24,-0.2 0.044,-0.06 0.076,-0.132 0.108,-0.2 0.008,-0.016 0.02,-0.024 0.036,-0.024 0.024,0 0.052,0.02 0.052,0.056 v 0.98 H 6.54 c 0.04,0 0.06,0.028 0.06,0.056 0,0.028 -0.02,0.06 -0.06,0.06 H 6.252 v 0.032 H 5.784 V 5.2934 H 5.116 c -0.092,0 -0.124,-0.056 -0.124,-0.092 0,-0.012 0.004,-0.02 0.008,-0.024 0.32,-0.372 0.552,-0.828 0.552,-1.32 0,-0.04 0.028,-0.076 0.064,-0.064 0.092,0.028 0.188,0.052 0.284,0.052 0.096,0 0.192,-0.024 0.284,-0.052 0.056,-0.016 0.092,0.036 0.068,0.064 l -1.136,1.32 h 0.668 v -0.524 c 0,-0.032 0.004,-0.068 0.032,-0.088 z"
     fill="currentColor"
     id="path22"
     style="stroke-width:0.004" />
  <path
     d="M 1.864,7.319 H 1.84 c -0.432,0 -0.78,-0.352 -0.78,-0.788 0,-0.232 0.212,-0.412 0.448,-0.412 0.216,0 0.38,0.188 0.38,0.412 0,0.208 -0.172,0.38 -0.38,0.38 -0.044,0 -0.084,-0.008 -0.124,-0.024 0.104,0.156 0.272,0.26 0.468,0.26 H 1.868 Z M 2.644,5.591 C 2.916,5.495 3.096,5.211 3.096,4.935 3.096,4.575 2.832,4.219 2.404,4.175 2.5,4.639 2.588,5.099 2.644,5.591 Z M 1.096,4.667 c 0,0.54 0.516,0.988 1.056,0.988 0.112,0 0.22,-0.008 0.328,-0.024 C 2.424,5.123 2.332,4.651 2.228,4.175 1.912,4.207 1.732,4.419 1.732,4.651 c 0,0.176 0.1,0.364 0.324,0.492 0.02,0.02 0.028,0.04 0.028,0.06 0,0.044 -0.04,0.088 -0.088,0.088 C 1.984,5.291 1.972,5.287 1.96,5.283 1.64,5.111 1.492,4.823 1.492,4.543 1.492,4.191 1.724,3.847 2.132,3.755 2.076,3.523 2.016,3.287 1.948,3.055 1.52,3.539 1.096,4.027 1.096,4.667 Z M 2.14,5.827 C 1.388,5.827 0.808,5.139 0.808,4.331 0.808,3.623 1.332,3.107 1.8,2.567 1.724,2.319 1.652,2.067 1.62,1.807 1.596,1.599 1.592,1.391 1.592,1.183 c 0,-0.46 0.22,-0.896 0.596,-1.168 0.024,-0.02 0.056,-0.02 0.08,0 0.284,0.336 0.532,0.98 0.532,1.432 0,0.572 -0.344,1.02 -0.72,1.456 0.084,0.272 0.156,0.552 0.224,0.828 0.016,0 0.036,-0.004 0.052,-0.004 0.62,0 1.024,0.512 1.024,1.044 0,0.304 -0.132,0.616 -0.428,0.84 C 2.864,5.679 2.764,5.723 2.66,5.755 2.672,5.895 2.68,6.035 2.68,6.175 2.68,6.251 2.676,6.331 2.672,6.407 2.644,6.883 2.32,7.307 1.864,7.319 L 1.868,7.147 C 2.24,7.139 2.48,6.779 2.504,6.383 2.508,6.311 2.512,6.235 2.512,6.163 2.512,6.039 2.508,5.919 2.496,5.795 2.38,5.815 2.264,5.827 2.14,5.827 Z M 2.512,1.115 c 0,-0.22 -0.016,-0.316 -0.08,-0.516 -0.396,0.192 -0.648,0.596 -0.648,1.036 0,0.296 0.072,0.532 0.144,0.776 0.32,-0.388 0.584,-0.792 0.584,-1.296 z"
     fill="currentColor"
     id="path24"
     style="stroke-width:0.004" />
  <path
     d="m 9.4767,6.235 c 0.22,0 0.432,0.112 0.432,0.356 0,0.284 -0.22,0.484 -0.408,0.596 -0.14,0.084 -0.3,0.136 -0.464,0.136 -0.22,0 -0.432,-0.112 -0.432,-0.356 0,-0.284 0.22,-0.484 0.408,-0.596 0.14,-0.084 0.3,-0.136 0.464,-0.136 z"
     fill="currentColor"
     id="path26"
     style="stroke-width:0.004" />
</svg>
